assets/icons/home.svg

<?xml version="1.0" encoding="iso-8859-1"?>
<!-- Generator: Adobe Illustrator 19.0.0, SVG Export Plug-In . SVG Version: 6.00 Build 0)  -->
<svg version="1.1" id="Capa_1" xmlns="http://www.w3.org/2000/svg" xmlns:xlink="http://www.w3.org/1999/xlink" x="0px" y="0px"
	 viewBox="0 0 512.001 512.001" style="enable-background:new 0 0 512.001 512.001;" xml:space="preserve">
<g>
	<g>
		<path d="M503.402,228.885L273.684,19.567c-10.083-9.189-25.288-9.188-35.367-0.001L8.598,228.886
			c-8.077,7.36-10.745,18.7-6.799,28.889c3.947,10.189,13.557,16.772,24.484,16.772h36.69v209.721
			c0,8.315,6.742,15.057,15.057,15.057h125.914c8.315,0,15.057-6.741,15.057-15.057V356.932h74.002v127.337
			c0,8.315,6.742,15.057,15.057,15.057h125.908c8.315,0,15.057-6.741,15.057-15.057V274.547h36.697
			c10.926,0,20.537-6.584,24.484-16.772C514.147,247.585,511.479,236.246,503.402,228.885z"/>
	</g>
</g>
<g>
	<g>
		<path d="M445.092,42.73H343.973l116.176,105.636v-90.58C460.149,49.471,453.408,42.73,445.092,42.73z"/>
	</g>
</g>
<g>
</g>
<g>
</g>
<g>
</g>
<g>
</g>
<g>
</g>
<g>
</g>
<g>
</g>
<g>
</g>
<g>
</g>
<g>
</g>
<g>
</g>
<g>
</g>
<g>
</g>
<g>
</g>
<g>
</g>
</svg>

<svg width="512" height="512" viewBox="0 0 512 512" fill="none" xmlns="http://www.w3.org/2000/svg">
<g clip-path="url(#clip0)">
<path d="M503.402 228.885L273.684 19.567C263.601 10.378 248.396 10.379 238.317 19.566L8.59804 228.886C0.521044 236.246 -2.14696 247.586 1.79904 257.775C5.74604 267.964 15.356 274.547 26.283 274.547H62.973V484.268C62.973 492.583 69.715 499.325 78.03 499.325H203.944C212.259 499.325 219.001 492.584 219.001 484.268V356.932H293.003V484.269C293.003 492.584 299.745 499.326 308.06 499.326H433.968C442.283 499.326 449.025 492.585 449.025 484.269V274.547H485.722C496.648 274.547 506.259 267.963 510.206 257.775C514.147 247.585 511.479 236.246 503.402 228.885Z" fill="#353535"/>
<path d="M445.092 42.73H343.973L460.149 148.366V57.786C460.149 49.471 453.408 42.73 445.092 42.73Z" fill="#353535"/>
</g>
<defs>
<clipPath id="clip0">
<rect width="512.001" height="512.001" fill="white"/>
</clipPath>
</defs>
</svg>
